Dominus_Funeral/symbolic/status/weather-clouds-symbolic.svg

<?xml version="1.0" encoding="UTF-8" standalone="no"?>
<svg
   xmlns:dc="http://purl.org/dc/elements/1.1/"
   xmlns:cc="http://creativecommons.org/ns#"
   xmlns:rdf="http://www.w3.org/1999/02/22-rdf-syntax-ns#"
   xmlns:svg="http://www.w3.org/2000/svg"
   xmlns="http://www.w3.org/2000/svg"
   xmlns:sodipodi="http://sodipodi.sourceforge.net/DTD/sodipodi-0.dtd"
   xmlns:inkscape="http://www.inkscape.org/namespaces/inkscape"
   width="24"
   height="24"
   version="1.1"
   id="svg4"
   sodipodi:docname="weather-clouds-symbolic.svg"
   inkscape:version="0.92.4 (5da689c313, 2019-01-14)">
  <metadata
     id="metadata10">
    <rdf:RDF>
      <cc:Work
         rdf:about="">
        <dc:format>image/svg+xml</dc:format>
        <dc:type
           rdf:resource="http://purl.org/dc/dcmitype/StillImage" />
        <dc:title></dc:title>
      </cc:Work>
    </rdf:RDF>
  </metadata>
  <defs
     id="defs8" />
  <sodipodi:namedview
     pagecolor="#ffffff"
     bordercolor="#666666"
     borderopacity="1"
     objecttolerance="10"
     gridtolerance="10"
     guidetolerance="10"
     inkscape:pageopacity="0"
     inkscape:pageshadow="2"
     inkscape:window-width="1112"
     inkscape:window-height="480"
     id="namedview6"
     showgrid="false"
     inkscape:zoom="9.8333333"
     inkscape:cx="12"
     inkscape:cy="12"
     inkscape:window-x="0"
     inkscape:window-y="25"
     inkscape:window-maximized="0"
     inkscape:current-layer="svg4" />
  <path
     style="fill:#808080"
     d="m 11.662109,1.9882812 c -0.179,0 -0.318359,0.1608438 -0.318359,0.3398438 v 1.9902344 c 0,0.2 0.140359,0.3378906 0.318359,0.3378906 h 0.675782 c 0.179,0 0.318359,-0.1403594 0.318359,-0.3183594 V 2.328125 c 0,-0.199 -0.140359,-0.3398437 -0.318359,-0.3398438 z M 5.3925781,4.5761719 A 0.338,0.338 0 0 0 5.1542969,4.6953125 L 4.6953125,5.1542969 a 0.338,0.338 0 0 0 0,0.4765625 l 1.3945313,1.4140625 a 0.338,0.338 0 0 0 0.4765624,0 L 7.0449219,6.5664062 a 0.338,0.338 0 0 0 0,-0.4570312 L 5.6503906,4.6953125 A 0.318,0.318 0 0 0 5.3925781,4.5957031 Z m 13.2148439,0 a 0.318,0.318 0 0 0 -0.238281,0.1191406 l -1.414063,1.3945313 a 0.338,0.338 0 0 0 0,0.4765624 l 0.478516,0.4785157 a 0.338,0.338 0 0 0 0.457031,0 l 1.414063,-1.3945313 a 0.338,0.338 0 0 0 0,-0.4960937 L 18.845703,4.6953125 A 0.338,0.338 0 0 0 18.607422,4.5957031 Z M 12,6.9570312 A 5.044,5.044 0 0 0 6.9570312,12 5.044,5.044 0 0 0 8.2011719,15.304688 3.556,3.556 0 0 1 8.7714844,15.101562 5.333,5.333 0 0 1 8.7675781,14.986328 5.333,5.333 0 0 1 14.101562,9.6542969 5.333,5.333 0 0 1 16.761719,10.373047 5.044,5.044 0 0 0 12,6.9570312 Z m 2.101562,3.5859378 A 4.444,4.444 0 0 0 9.65625,14.986328 4.444,4.444 0 0 0 9.7519531,15.880859 2.667,2.667 0 0 0 9.65625,15.875 2.667,2.667 0 0 0 6.9902344,18.542969 2.667,2.667 0 0 0 9.65625,21.208984 h 8 a 3.556,3.556 0 0 0 3.556641,-3.554687 3.556,3.556 0 0 0 -2.738282,-3.457031 4.444,4.444 0 0 0 -4.373047,-3.654297 z M 2.328125,11.34375 c -0.199,0 -0.3398437,0.138359 -0.3398438,0.318359 v 0.675782 c 0,0.179 0.1608438,0.318359 0.3398438,0.318359 h 1.9902344 c 0.2,0 0.3378906,-0.140359 0.3378906,-0.318359 V 11.662109 A 0.314,0.314 0 0 0 4.3378906,11.34375 Z m 17.302734,0 a 0.314,0.314 0 0 0 -0.287109,0.318359 v 0.675782 c 0,0.179 0.140359,0.318359 0.318359,0.318359 h 2.009766 c 0.199,0 0.339844,-0.140359 0.339844,-0.318359 v -0.675782 c 0,-0.179 -0.160844,-0.318359 -0.339844,-0.318359 h -2.009766 a 0.314,0.314 0 0 0 -0.03125,0 z"
     id="path826"
     inkscape:connector-curvature="0" />
</svg>

<?xml version="1.0" encoding="UTF-8" standalone="no"?>
<svg
   xmlns:dc="http://purl.org/dc/elements/1.1/"
   xmlns:cc="http://creativecommons.org/ns#"
   xmlns:rdf="http://www.w3.org/1999/02/22-rdf-syntax-ns#"
   xmlns:svg="http://www.w3.org/2000/svg"
   xmlns="http://www.w3.org/2000/svg"
   xmlns:sodipodi="http://sodipodi.sourceforge.net/DTD/sodipodi-0.dtd"
   xmlns:inkscape="http://www.inkscape.org/namespaces/inkscape"
   width="24"
   height="24"
   version="1.1"
   id="svg4"
   sodipodi:docname="weather-clouds-symbolic.svg"
   inkscape:version="0.92.4 (5da689c313, 2019-01-14)">
  <metadata
     id="metadata10">
    <rdf:RDF>
      <cc:Work
         rdf:about="">
        <dc:format>image/svg+xml</dc:format>
        <dc:type
           rdf:resource="http://purl.org/dc/dcmitype/StillImage" />
        <dc:title></dc:title>
      </cc:Work>
    </rdf:RDF>
  </metadata>
  <defs
     id="defs8" />
  <sodipodi:namedview
     pagecolor="#ffffff"
     bordercolor="#666666"
     borderopacity="1"
     objecttolerance="10"
     gridtolerance="10"
     guidetolerance="10"
     inkscape:pageopacity="0"
     inkscape:pageshadow="2"
     inkscape:window-width="1085"
     inkscape:window-height="480"
     id="namedview6"
     showgrid="false"
     inkscape:zoom="11.833333"
     inkscape:cx="12"
     inkscape:cy="12"
     inkscape:window-x="0"
     inkscape:window-y="25"
     inkscape:window-maximized="0"
     inkscape:current-layer="svg4" />
  <path
     style="fill:#808080"
     d="M 11.662109 1.9882812 C 11.483109 1.9882812 11.34375 2.149125 11.34375 2.328125 L 11.34375 4.3183594 C 11.34375 4.5183594 11.484109 4.65625 11.662109 4.65625 L 12.337891 4.65625 C 12.516891 4.65625 12.65625 4.5158906 12.65625 4.3378906 L 12.65625 2.328125 C 12.65625 2.129125 12.515891 1.9882813 12.337891 1.9882812 L 11.662109 1.9882812 z M 5.3925781 4.5761719 A 0.338 0.338 0 0 0 5.1542969 4.6953125 L 4.6953125 5.1542969 A 0.338 0.338 0 0 0 4.6953125 5.6308594 L 6.0898438 7.0449219 A 0.338 0.338 0 0 0 6.5664062 7.0449219 L 7.0449219 6.5664062 A 0.338 0.338 0 0 0 7.0449219 6.109375 L 5.6503906 4.6953125 A 0.318 0.318 0 0 0 5.3925781 4.5957031 L 5.3925781 4.5761719 z M 18.607422 4.5761719 A 0.318 0.318 0 0 0 18.369141 4.6953125 L 16.955078 6.0898438 A 0.338 0.338 0 0 0 16.955078 6.5664062 L 17.433594 7.0449219 A 0.338 0.338 0 0 0 17.890625 7.0449219 L 19.304688 5.6503906 A 0.338 0.338 0 0 0 19.304688 5.1542969 L 18.845703 4.6953125 A 0.338 0.338 0 0 0 18.607422 4.5957031 L 18.607422 4.5761719 z M 12 6.9570312 A 5.044 5.044 0 0 0 6.9570312 12 A 5.044 5.044 0 0 0 8.2011719 15.304688 A 3.556 3.556 0 0 1 8.7714844 15.101562 A 5.333 5.333 0 0 1 8.7675781 14.986328 A 5.333 5.333 0 0 1 14.101562 9.6542969 A 5.333 5.333 0 0 1 16.761719 10.373047 A 5.044 5.044 0 0 0 12 6.9570312 z M 14.101562 10.542969 A 4.444 4.444 0 0 0 9.65625 14.986328 A 4.444 4.444 0 0 0 9.7519531 15.880859 A 2.667 2.667 0 0 0 9.65625 15.875 A 2.667 2.667 0 0 0 6.9902344 18.542969 A 2.667 2.667 0 0 0 9.65625 21.208984 L 17.65625 21.208984 A 3.556 3.556 0 0 0 21.212891 17.654297 A 3.556 3.556 0 0 0 18.474609 14.197266 A 4.444 4.444 0 0 0 14.101562 10.542969 z M 2.328125 11.34375 C 2.129125 11.34375 1.9882813 11.482109 1.9882812 11.662109 L 1.9882812 12.337891 C 1.9882812 12.516891 2.149125 12.65625 2.328125 12.65625 L 4.3183594 12.65625 C 4.5183594 12.65625 4.65625 12.515891 4.65625 12.337891 L 4.65625 11.662109 A 0.314 0.314 0 0 0 4.3378906 11.34375 L 2.328125 11.34375 z M 19.630859 11.34375 A 0.314 0.314 0 0 0 19.34375 11.662109 L 19.34375 12.337891 C 19.34375 12.516891 19.484109 12.65625 19.662109 12.65625 L 21.671875 12.65625 C 21.870875 12.65625 22.011719 12.515891 22.011719 12.337891 L 22.011719 11.662109 C 22.011719 11.483109 21.850875 11.34375 21.671875 11.34375 L 19.662109 11.34375 A 0.314 0.314 0 0 0 19.630859 11.34375 z "
     id="path826" />
</svg>
